X: 18
T: Kylebrack Rambler, The
C: Finbarr Dwyer
Z: RobSheldrick
S: https://thesession.org/tunes/361#setting52013
R: reel
M: 4/4
L: 1/8
K: Emix
|:EB,~B,2 EB,=GB,|EB,~B,2 DB,A,B,|EB,B,E - EB,EF|GABG A/B/AGA|
Beef edBd-|dAB/c/d AFEF|EDB,A, B,EEF|1 GBAF E2 =GF:|2 GBAF EFGA||
|:BGAB GE~-E2|B/c/ded Bded-|dAFA DFAc|dfec dBAB|
eBgB eB~B2|^dB~B2 FBBG|A/B/AFA DEFd-|dBAF EFGA:|

%-------------------- TUNE SEPARATOR --------------------%

